svgs/solid/truck-front.svg

<svg xmlns="http://www.w3.org/2000/svg" viewBox="0 0 512 512"><!--! Font Awesome Pro 6.4.2 by @fontawesome - https://fontawesome.com License - https://fontawesome.com/license (Commercial License) Copyright 2023 Fonticons, Inc. --><path d="M0 80C0 35.8 35.8 0 80 0H432c44.2 0 80 35.8 80 80V368c0 26.2-12.6 49.4-32 64v48c0 17.7-14.3 32-32 32H416c-17.7 0-32-14.3-32-32V448H128v32c0 17.7-14.3 32-32 32H64c-17.7 0-32-14.3-32-32V432C12.6 417.4 0 394.2 0 368V80zm129.9 72.2L112 224H400l-17.9-71.8C378.5 138 365.7 128 351 128H161c-14.7 0-27.5 10-31 24.2zM128 320a32 32 0 1 0 -64 0 32 32 0 1 0 64 0zm288 32a32 32 0 1 0 0-64 32 32 0 1 0 0 64z"/></svg>

<svg xmlns="http://www.w3.org/2000/svg" viewBox="0 0 512 512"><!--! Font Awesome Pro 6.1.1 by @fontawesome - https://fontawesome.com License - https://fontawesome.com/license (Commercial License) Copyright 2022 Fonticons, Inc. --><path d="M0 80C0 35.82 35.82 0 80 0H432C476.2 0 512 35.82 512 80V368C512 394.2 499.4 417.4 480 432V480C480 497.7 465.7 512 448 512H416C398.3 512 384 497.7 384 480V448H128V480C128 497.7 113.7 512 96 512H64C46.33 512 32 497.7 32 480V432C12.57 417.4 0 394.2 0 368V80zM129.9 152.2L112 224H400L382.1 152.2C378.5 137.1 365.7 128 351 128H160.1C146.3 128 133.5 137.1 129.9 152.2H129.9zM96 288C78.33 288 64 302.3 64 320C64 337.7 78.33 352 96 352C113.7 352 128 337.7 128 320C128 302.3 113.7 288 96 288zM416 352C433.7 352 448 337.7 448 320C448 302.3 433.7 288 416 288C398.3 288 384 302.3 384 320C384 337.7 398.3 352 416 352z"/></svg>
